svg/credit_card_chip_outline.svg

<svg xmlns="http://www.w3.org/2000/svg" viewBox="0 0 24 24"><path d="M20 6v12H4V6zm0-2H4c-1.11 0-2 .89-2 2v12c0 1.11.89 2 2 2h16c1.11 0 2-.89 2-2V6c0-1.11-.89-2-2-2m-9 6H6v4h5z"/></svg>

<svg xmlns="http://www.w3.org/2000/svg" id="mdi-credit-card-chip-outline" viewBox="0 0 24 24"><path d="M20 6L20 18L4 18L4 6H20M20 4H4C2.89 4 2 4.89 2 6V18C2 19.11 2.89 20 4 20H20C21.11 20 22 19.11 22 18V6C22 4.89 21.11 4 20 4M11 10H6V14H11V10Z" /></svg>
